usr/share/icons/biglinux-icons-material/scalable/mimetypes/text-x-php.svg

<svg width="24" height="24" viewBox="0 0 24 24" fill="none" xmlns="http://www.w3.org/2000/svg">
<rect x="1" y="1" width="22" height="22" rx="6.6" fill="url(#paint0_radial_21_2002)"/>
<path d="M11.8213 8C11.4625 8 11.1223 8.04068 10.8008 8.12192C10.4868 8.20318 10.2027 8.31032 9.94853 8.44326L10.2401 9.24116C10.7111 8.99001 11.1934 8.86445 11.6868 8.86445C12.0756 8.86445 12.371 8.96402 12.5728 9.16345C12.7747 9.35551 12.8755 9.60665 12.8755 9.9169C12.8755 10.109 12.8307 10.2863 12.741 10.4488C12.6587 10.6113 12.5503 10.7665 12.4158 10.9142C12.2812 11.0619 12.1392 11.2095 11.9897 11.3572C11.8402 11.4976 11.698 11.6527 11.5634 11.8226C11.4289 11.9851 11.3168 12.1625 11.2271 12.3546C11.1449 12.5466 11.1037 12.7606 11.1037 12.997C11.1037 13.1595 11.1187 13.3147 11.1485 13.4624H12.0232C12.0156 13.4255 12.012 13.385 12.012 13.3407V13.2188C12.012 12.975 12.0606 12.7569 12.1578 12.5649C12.255 12.3655 12.3747 12.1846 12.5167 12.0221C12.6588 11.8522 12.8156 11.6897 12.9875 11.5346C13.1595 11.3794 13.3165 11.217 13.4585 11.0471C13.6006 10.8772 13.7203 10.6963 13.8175 10.5042C13.9147 10.3048 13.9633 10.0794 13.9633 9.82828C13.9633 9.62885 13.9298 9.42214 13.8625 9.20795C13.8026 8.98635 13.6904 8.78674 13.5259 8.60947C13.3614 8.43221 13.141 8.28817 12.8643 8.17738C12.5952 8.05919 12.2475 8 11.8213 8ZM8.8445 10.0722L4 12.0999V12.9862L8.8445 15.0139L9.13606 14.1606L5.15501 12.543L9.13606 10.9253L8.8445 10.0722ZM15.1553 10.0722L14.8637 10.9252L18.8448 12.5428L14.8637 14.1605L15.1553 15.0138L20 12.986V12.0997L15.1553 10.0722ZM11.6418 14.5152C11.41 14.5152 11.2269 14.589 11.0923 14.7367C10.9578 14.8844 10.8905 15.058 10.8905 15.2575C10.8905 15.4569 10.9578 15.6305 11.0923 15.7782C11.2269 15.926 11.41 16 11.6418 16C11.8736 16 12.0569 15.926 12.1915 15.7782C12.326 15.6305 12.3933 15.4569 12.3933 15.2575C12.3933 15.058 12.326 14.8845 12.1915 14.7367C12.0569 14.589 11.8736 14.5152 11.6418 14.5152Z" fill="#8F76E4"/>
<defs>
<radialGradient id="paint0_radial_21_2002" cx="0" cy="0" r="1" gradientUnits="userSpaceOnUse" gradientTransform="translate(17.5 1) rotate(116.565) scale(24.5967)">
<stop stop-color="#F4F4F4"/>
<stop offset="1" stop-color="#BBBBBB"/>
</radialGradient>
</defs>
</svg>

<svg xmlns="http://www.w3.org/2000/svg" width="24" height="24" fill="none"><rect width="22" height="22" x="1" y="1" fill="url(#a)" rx="6.6"/><path fill="#8F76E4" d="M11.821 8a3.99 3.99 0 0 0-1.873.443l.292.798a3.04 3.04 0 0 1 1.447-.377c.389 0 .684.1.886.3.202.192.303.443.303.753 0 .192-.045.37-.135.532-.082.162-.19.318-.325.465-.135.148-.277.296-.426.443a4.3 4.3 0 0 0-.427.466 2.47 2.47 0 0 0-.336.532 1.616 1.616 0 0 0-.123.642c0 .162.015.318.045.465h.874a.604.604 0 0 1-.011-.121v-.122c0-.244.049-.462.146-.654.097-.2.217-.38.359-.543.142-.17.299-.332.47-.487.172-.156.33-.318.472-.488.142-.17.261-.35.359-.543.097-.2.145-.425.145-.676 0-.2-.033-.406-.1-.62a1.413 1.413 0 0 0-.337-.599 1.796 1.796 0 0 0-.662-.432C12.595 8.06 12.247 8 11.821 8Zm-2.976 2.072L4 12.1v.886l4.845 2.028.291-.853-3.981-1.618 3.981-1.618-.291-.853Zm6.31 0-.291.853 3.98 1.618-3.98 1.618.291.853L20 12.986V12.1l-4.845-2.028Zm-3.513 4.443c-.232 0-.415.074-.55.222a.748.748 0 0 0-.202.52c0 .2.068.373.202.521.135.148.318.222.55.222.232 0 .415-.074.55-.222a.748.748 0 0 0 .201-.52c0-.2-.067-.373-.202-.521-.134-.148-.317-.222-.55-.222Z"/><defs><radialGradient id="a" cx="0" cy="0" r="1" gradientTransform="rotate(116.565 8.441 5.908) scale(24.5967)" gradientUnits="userSpaceOnUse"><stop stop-color="#F4F4F4"/><stop offset="1" stop-color="#BBB"/></radialGradient></defs></svg>
